packages/katcn/src/icons/svg/users-solid.svg

<svg width="24" height="25" viewBox="0 0 24 25" fill="none" xmlns="http://www.w3.org/2000/svg">
<path d="M10.6 11.3761C10.6 12.1761 10.2 12.9761 9.70003 13.4761C8.90003 14.2761 8.20003 15.2761 7.80003 16.3761C7.30003 17.5761 7.40003 18.9761 8.20003 20.0761C8.30003 20.1761 8.50003 20.4761 8.50003 20.4761H3.50003C3.00003 20.4761 2.60003 20.3761 2.20003 20.0761C1.20003 19.4761 0.90003 18.2761 1.30003 17.3761C1.80003 15.8761 3.00003 14.7761 4.40003 14.0761C3.50003 13.2761 3.00003 11.9761 3.30003 10.5761C3.60003 9.1761 4.70003 7.9761 6.20003 7.6761C7.90003 7.3761 9.40003 8.1761 10.2 9.5761C10.4 10.0761 10.6 10.6761 10.6 11.3761Z" fill="black"/>
<path d="M22.8 16.9761C22 14.9761 20.4 13.5761 18.5 12.8761C19.6 12.0761 20.3 10.7761 20.3 9.37607C20.3 6.87607 18.4 4.97607 16 4.97607C13.6 4.97607 11.7 6.87607 11.7 9.27607C11.7 10.6761 12.4 11.9761 13.5 12.7761C11.5 13.4761 9.89997 14.9761 9.09997 16.9761C8.79997 17.7761 8.89997 18.5761 9.29997 19.2761C9.79997 19.9761 10.6 20.4761 11.5 20.4761H20.4C21.3 20.4761 22.1 20.0761 22.6 19.2761C23 18.5761 23.1 17.6761 22.8 16.9761Z" fill="black"/>
</svg>

<svg xmlns="http://www.w3.org/2000/svg" fill="none" viewBox="0 0 24 25"><path fill="#000" d="M10.6 11.376c0 .8-.4 1.6-.9 2.1-.8.8-1.5 1.8-1.9 2.9-.5 1.2-.4 2.6.4 3.7.1.1.3.4.3.4h-5c-.5 0-.9-.1-1.3-.4-1-.6-1.3-1.8-.9-2.7.5-1.5 1.7-2.6 3.1-3.3-.9-.8-1.4-2.1-1.1-3.5s1.4-2.6 2.9-2.9c1.7-.3 3.2.5 4 1.9.2.5.4 1.1.4 1.8"/><path fill="#000" d="M22.8 16.976c-.8-2-2.4-3.4-4.3-4.1 1.1-.8 1.8-2.1 1.8-3.5 0-2.5-1.9-4.4-4.3-4.4s-4.3 1.9-4.3 4.3c0 1.4.7 2.7 1.8 3.5-2 .7-3.6 2.2-4.4 4.2-.3.8-.2 1.6.2 2.3.5.7 1.3 1.2 2.2 1.2h8.9c.9 0 1.7-.4 2.2-1.2.4-.7.5-1.6.2-2.3"/></svg>
